HTML/img/Rhythms/rhythm1.svg

<svg width="612" height="792" viewBox="0 0 140 50" xmlns="http://www.w3.org/2000/svg"><path class="StaffLines" fill="none" stroke="#000" stroke-width=".4" stroke-linejoin="bevel" d="M4.945 21.885h130.11"/><path class="BarLine" d="M125.821 20.186a1.088 1.088 0 01-.332-.801c0-.312.11-.58.332-.8.221-.222.488-.332.8-.332.313 0 .58.11.801.332.222.22.332.488.332.8 0 .313-.11.58-.332.801a1.092 1.092 0 01-.801.332c-.312 0-.579-.111-.8-.332M125.821 25.186a1.088 1.088 0 01-.332-.801c0-.312.11-.58.332-.8.221-.222.488-.332.8-.332.313 0 .58.11.801.332.222.22.332.488.332.8 0 .313-.11.58-.332.801a1.088 1.088 0 01-.801.332c-.312 0-.579-.11-.8-.332"/><path class="BarLine" fill="none" stroke="#000" stroke-width=".8" stroke-linejoin="bevel" d="M130.155 11.885v20"/><path class="BarLine" fill="none" stroke="#000" stroke-width="2.5" stroke-linejoin="bevel" d="M133.805 11.885v20"/><path class="Stem" fill="none" stroke="#000" stroke-width=".65" stroke-linecap="round" stroke-linejoin="bevel" d="M111.671 22.824v14.061M97.528 22.824v14.061M74.901 22.824V35.01M43.606 22.669V35.01"/><path class="Note" d="M115.741 19.131c.625 0 1.152.163 1.582.489.403.351.605.793.605 1.328 0 .898-.462 1.738-1.387 2.519-.937.782-1.94 1.172-3.007 1.172-.625 0-1.153-.163-1.582-.489a1.683 1.683 0 01-.606-1.327c0-.899.469-1.738 1.406-2.52.912-.782 1.908-1.172 2.989-1.172M101.598 19.131c.625 0 1.152.163 1.582.489.404.351.606.793.606 1.328 0 .898-.463 1.738-1.387 2.519-.938.782-1.94 1.172-3.008 1.172-.625 0-1.152-.163-1.582-.489a1.683 1.683 0 01-.606-1.327c0-.899.469-1.738 1.407-2.52.911-.782 1.907-1.172 2.988-1.172M78.97 19.131c.625 0 1.152.163 1.582.489.404.351.605.793.605 1.328 0 .898-.462 1.738-1.386 2.519-.938.782-1.94 1.172-3.008 1.172-.625 0-1.152-.163-1.582-.489a1.682 1.682 0 01-.605-1.327c0-.899.468-1.738 1.406-2.52.911-.782 1.907-1.172 2.988-1.172M49.59 20.577a.745.745 0 00-.254-.567.8.8 0 00-.586-.254c-.39 0-1.178.39-2.363 1.172-1.224.795-1.973 1.36-2.246 1.7a.907.907 0 00-.215.565c0 .222.085.411.254.567a.76.76 0 00.586.254c.377 0 1.172-.39 2.383-1.172 1.198-.781 1.94-1.347 2.226-1.699a.858.858 0 00.215-.566m-1.035-1.446c1.12 0 1.68.482 1.68 1.446 0 .468-.137 1.015-.411 1.64-.273.612-.638 1.081-1.093 1.407-1.003.677-2.259 1.015-3.77 1.015-1.12 0-1.68-.482-1.68-1.446 0-.429.137-.97.411-1.62.26-.625.625-1.1 1.093-1.427 1.003-.677 2.259-1.015 3.77-1.015"/><path class="Clef" d="M17.949 26.885h-1.835c-.144 0-.215-.065-.215-.196v-9.608c0-.131.071-.196.215-.196h1.835c.131 0 .196.065.196.196v9.608c0 .131-.065.196-.196.196m-4.414 0H11.68c-.13 0-.195-.065-.195-.196v-9.608c0-.131.065-.196.195-.196h1.855c.144 0 .215.065.215.196v9.608c0 .131-.071.196-.215.196"/><path class="TimeSig" d="M31.023 12.139c.39 0 .722-.047.996-.138.273-.09.449-.136.527-.136.091 0 .163.026.215.078a.288.288 0 01.078.136.31.31 0 01-.039.119l-5.684 6.601h3.34v-2.617c0-.17.046-.314.137-.431.156-.129.286-.207.39-.233.17-.079.378-.261.625-.547.209-.235.456-.645.743-1.231.039-.079.097-.118.175-.118.157 0 .248.092.274.274v4.903h1.426c.182 0 .286.097.312.293 0 .194-.104.293-.312.293H32.8v.155c0 .522.13.965.39 1.328.3.366.652.547 1.055.547.156 0 .235.078.235.235 0 .157-.079.235-.235.235-.273 0-.716-.039-1.328-.117-.56-.092-.996-.137-1.309-.137-.325 0-.761.045-1.308.137-.586.078-1.022.117-1.309.117-.156 0-.234-.078-.234-.235 0-.157.078-.235.234-.235.404 0 .755-.181 1.055-.547.273-.363.41-.806.41-1.328v-.155h-3.34c-.221 0-.377-.052-.468-.156a.373.373 0 01-.157-.314c0-.039.098-.175.293-.409a9.65 9.65 0 00.703-.957c.287-.444.56-.899.821-1.367a7.815 7.815 0 00.683-1.836c.196-.703.293-1.42.293-2.148 0-.21.091-.313.274-.313.039 0 .123.019.254.058.039.013.12.033.244.058.123.026.224.052.302.078.235.039.456.06.665.06"/><path class="TimeSig" d="M31.023 22.139c.39 0 .722-.045.996-.136.273-.092.449-.137.527-.137a.29.29 0 01.215.077.294.294 0 01.078.138.3.3 0 01-.039.117l-5.684 6.601h3.34v-2.617c0-.17.046-.312.137-.429.156-.131.286-.209.39-.235.17-.079.378-.26.625-.547.209-.235.456-.644.743-1.23.039-.078.097-.117.175-.117.157 0 .248.091.274.272v4.903h1.426c.182 0 .286.097.312.293 0 .196-.104.293-.312.293H32.8v.157c0 .521.13.963.39 1.328.3.364.652.547 1.055.547.156 0 .235.078.235.233 0 .157-.079.235-.235.235-.273 0-.716-.039-1.328-.117-.56-.092-.996-.136-1.309-.136-.325 0-.761.044-1.308.136-.586.078-1.022.117-1.309.117-.156 0-.234-.078-.234-.235 0-.155.078-.233.234-.233.404 0 .755-.183 1.055-.547.273-.365.41-.807.41-1.328v-.157h-3.34c-.221 0-.377-.052-.468-.156a.37.37 0 01-.157-.312c0-.039.098-.176.293-.41.222-.262.456-.581.703-.958.287-.442.56-.899.821-1.367a7.815 7.815 0 00.683-1.836c.196-.703.293-1.42.293-2.148 0-.208.091-.313.274-.313.039 0 .123.019.254.058.039.013.12.034.244.06.123.026.224.052.302.078.235.039.456.058.665.058"/><path class="Beam" fill-rule="evenodd" d="M97.203 35.635h14.793v2.5H97.203v-2.5"/></svg>

<?xml version="1.0" encoding="utf-8"?>
<svg width="612px" height="792px" viewBox="0 0 140 50" xmlns="http://www.w3.org/2000/svg">
  <title>Rythm rythms</title>
  <desc>Generated by MuseScore 2.0.3</desc>
  <polyline class="StaffLines" fill="none" stroke="#000000" stroke-width="0.40" stroke-linejoin="bevel" points="4.945 21.885 135.055 21.885"/>
  <path class="BarLine" d="M 125.821 20.186 C 125.599 19.965 125.489 19.698 125.489 19.385 C 125.489 19.073 125.599 18.805 125.821 18.585 C 126.042 18.363 126.309 18.253 126.621 18.253 C 126.934 18.253 127.201 18.363 127.422 18.585 C 127.644 18.805 127.754 19.073 127.754 19.385 C 127.754 19.698 127.644 19.965 127.422 20.186 C 127.201 20.407 126.934 20.518 126.621 20.518 C 126.309 20.518 126.042 20.407 125.821 20.186"/>
  <path class="BarLine" d="M 125.821 25.186 C 125.599 24.965 125.489 24.698 125.489 24.385 C 125.489 24.073 125.599 23.805 125.821 23.585 C 126.042 23.363 126.309 23.253 126.621 23.253 C 126.934 23.253 127.201 23.363 127.422 23.585 C 127.644 23.805 127.754 24.073 127.754 24.385 C 127.754 24.698 127.644 24.965 127.422 25.186 C 127.201 25.408 126.934 25.518 126.621 25.518 C 126.309 25.518 126.042 25.408 125.821 25.186"/>
  <polyline class="BarLine" fill="none" stroke="#000000" stroke-width="0.80" stroke-linejoin="bevel" points="130.155 11.885 130.155 31.885"/>
  <polyline class="BarLine" fill="none" stroke="#000000" stroke-width="2.50" stroke-linejoin="bevel" points="133.805 11.885 133.805 31.885"/>
  <polyline class="Stem" fill="none" stroke="#000000" stroke-width="0.65" stroke-linecap="round" stroke-linejoin="bevel" points="111.671 22.824 111.671 36.885"/>
  <polyline class="Stem" fill="none" stroke="#000000" stroke-width="0.65" stroke-linecap="round" stroke-linejoin="bevel" points="97.528 22.824 97.528 36.885"/>
  <polyline class="Stem" fill="none" stroke="#000000" stroke-width="0.65" stroke-linecap="round" stroke-linejoin="bevel" points="74.901 22.824 74.901 35.01"/>
  <polyline class="Stem" fill="none" stroke="#000000" stroke-width="0.65" stroke-linecap="round" stroke-linejoin="bevel" points="43.606 22.669 43.606 35.01"/>
  <path class="Note" d="M 115.741 19.131 C 116.366 19.131 116.893 19.294 117.323 19.62 C 117.726 19.971 117.928 20.413 117.928 20.948 C 117.928 21.846 117.466 22.686 116.541 23.467 C 115.604 24.249 114.601 24.639 113.534 24.639 C 112.909 24.639 112.381 24.476 111.952 24.15 C 111.548 23.799 111.346 23.357 111.346 22.823 C 111.346 21.924 111.815 21.085 112.752 20.303 C 113.664 19.521 114.66 19.131 115.741 19.131"/>
  <path class="Note" d="M 101.598 19.131 C 102.223 19.131 102.75 19.294 103.18 19.62 C 103.584 19.971 103.786 20.413 103.786 20.948 C 103.786 21.846 103.323 22.686 102.399 23.467 C 101.461 24.249 100.459 24.639 99.391 24.639 C 98.766 24.639 98.239 24.476 97.809 24.15 C 97.405 23.799 97.203 23.357 97.203 22.823 C 97.203 21.924 97.672 21.085 98.61 20.303 C 99.521 19.521 100.517 19.131 101.598 19.131"/>
  <path class="Note" d="M 78.97 19.131 C 79.595 19.131 80.122 19.294 80.552 19.62 C 80.956 19.971 81.157 20.413 81.157 20.948 C 81.157 21.846 80.695 22.686 79.771 23.467 C 78.833 24.249 77.831 24.639 76.763 24.639 C 76.138 24.639 75.611 24.476 75.181 24.15 C 74.777 23.799 74.576 23.357 74.576 22.823 C 74.576 21.924 75.044 21.085 75.982 20.303 C 76.893 19.521 77.889 19.131 78.97 19.131"/>
  <path class="Note" d="M 49.59 20.577 C 49.59 20.355 49.505 20.167 49.336 20.01 C 49.167 19.84 48.972 19.756 48.75 19.756 C 48.36 19.756 47.572 20.146 46.387 20.928 C 45.163 21.723 44.414 22.288 44.141 22.628 C 43.998 22.81 43.926 22.999 43.926 23.193 C 43.926 23.415 44.011 23.604 44.18 23.76 C 44.336 23.93 44.531 24.014 44.766 24.014 C 45.143 24.014 45.938 23.624 47.149 22.842 C 48.347 22.061 49.089 21.495 49.375 21.143 C 49.518 20.973 49.59 20.785 49.59 20.577 M 48.555 19.131 C 49.675 19.131 50.235 19.613 50.235 20.577 C 50.235 21.045 50.098 21.592 49.824 22.217 C 49.551 22.829 49.186 23.298 48.731 23.624 C 47.728 24.301 46.472 24.639 44.961 24.639 C 43.841 24.639 43.281 24.157 43.281 23.193 C 43.281 22.764 43.418 22.223 43.692 21.573 C 43.952 20.948 44.317 20.473 44.785 20.146 C 45.788 19.469 47.044 19.131 48.555 19.131"/>
  <path class="Clef" d="M 17.949 26.885 L 16.114 26.885 C 15.97 26.885 15.899 26.82 15.899 26.689 L 15.899 17.081 C 15.899 16.95 15.97 16.885 16.114 16.885 L 17.949 16.885 C 18.08 16.885 18.145 16.95 18.145 17.081 L 18.145 26.689 C 18.145 26.82 18.08 26.885 17.949 26.885 M 13.535 26.885 L 11.68 26.885 C 11.55 26.885 11.485 26.82 11.485 26.689 L 11.485 17.081 C 11.485 16.95 11.55 16.885 11.68 16.885 L 13.535 16.885 C 13.679 16.885 13.75 16.95 13.75 17.081 L 13.75 26.689 C 13.75 26.82 13.679 26.885 13.535 26.885"/>
  <path class="TimeSig" d="M 31.023 12.139 C 31.413 12.139 31.745 12.092 32.019 12.001 C 32.292 11.911 32.468 11.865 32.546 11.865 C 32.637 11.865 32.709 11.891 32.761 11.943 C 32.8 11.982 32.826 12.027 32.839 12.079 C 32.839 12.105 32.826 12.145 32.8 12.198 L 27.116 18.799 L 30.456 18.799 L 30.456 16.182 C 30.456 16.012 30.502 15.868 30.593 15.751 C 30.749 15.622 30.879 15.544 30.983 15.518 C 31.153 15.439 31.361 15.257 31.608 14.971 C 31.817 14.736 32.064 14.326 32.351 13.74 C 32.39 13.661 32.448 13.622 32.526 13.622 C 32.683 13.622 32.774 13.714 32.8 13.896 L 32.8 18.799 L 34.226 18.799 C 34.408 18.799 34.512 18.896 34.538 19.092 C 34.538 19.286 34.434 19.385 34.226 19.385 L 32.8 19.385 L 32.8 19.54 C 32.8 20.062 32.93 20.505 33.19 20.868 C 33.49 21.234 33.842 21.415 34.245 21.415 C 34.401 21.415 34.48 21.493 34.48 21.65 C 34.48 21.807 34.401 21.885 34.245 21.885 C 33.972 21.885 33.529 21.846 32.917 21.768 C 32.357 21.676 31.921 21.631 31.608 21.631 C 31.283 21.631 30.847 21.676 30.3 21.768 C 29.714 21.846 29.278 21.885 28.991 21.885 C 28.835 21.885 28.757 21.807 28.757 21.65 C 28.757 21.493 28.835 21.415 28.991 21.415 C 29.395 21.415 29.746 21.234 30.046 20.868 C 30.319 20.505 30.456 20.062 30.456 19.54 L 30.456 19.385 L 27.116 19.385 C 26.895 19.385 26.739 19.333 26.648 19.229 C 26.543 19.15 26.491 19.046 26.491 18.915 C 26.491 18.876 26.589 18.74 26.784 18.506 C 27.006 18.245 27.24 17.926 27.487 17.549 C 27.774 17.105 28.047 16.65 28.308 16.182 C 28.594 15.648 28.822 15.036 28.991 14.346 C 29.187 13.643 29.284 12.926 29.284 12.198 C 29.284 11.988 29.375 11.885 29.558 11.885 C 29.597 11.885 29.681 11.904 29.812 11.943 C 29.851 11.956 29.932 11.976 30.056 12.001 C 30.179 12.027 30.28 12.053 30.358 12.079 C 30.593 12.118 30.814 12.139 31.023 12.139"/>
  <path class="TimeSig" d="M 31.023 22.139 C 31.413 22.139 31.745 22.094 32.019 22.003 C 32.292 21.911 32.468 21.866 32.546 21.866 C 32.637 21.866 32.709 21.891 32.761 21.943 C 32.8 21.982 32.826 22.029 32.839 22.081 C 32.839 22.107 32.826 22.146 32.8 22.198 L 27.116 28.799 L 30.456 28.799 L 30.456 26.182 C 30.456 26.012 30.502 25.87 30.593 25.753 C 30.749 25.622 30.879 25.544 30.983 25.518 C 31.153 25.439 31.361 25.258 31.608 24.971 C 31.817 24.736 32.064 24.327 32.351 23.741 C 32.39 23.663 32.448 23.624 32.526 23.624 C 32.683 23.624 32.774 23.715 32.8 23.896 L 32.8 28.799 L 34.226 28.799 C 34.408 28.799 34.512 28.896 34.538 29.092 C 34.538 29.288 34.434 29.385 34.226 29.385 L 32.8 29.385 L 32.8 29.542 C 32.8 30.063 32.93 30.505 33.19 30.87 C 33.49 31.234 33.842 31.417 34.245 31.417 C 34.401 31.417 34.48 31.495 34.48 31.65 C 34.48 31.807 34.401 31.885 34.245 31.885 C 33.972 31.885 33.529 31.846 32.917 31.768 C 32.357 31.676 31.921 31.632 31.608 31.632 C 31.283 31.632 30.847 31.676 30.3 31.768 C 29.714 31.846 29.278 31.885 28.991 31.885 C 28.835 31.885 28.757 31.807 28.757 31.65 C 28.757 31.495 28.835 31.417 28.991 31.417 C 29.395 31.417 29.746 31.234 30.046 30.87 C 30.319 30.505 30.456 30.063 30.456 29.542 L 30.456 29.385 L 27.116 29.385 C 26.895 29.385 26.739 29.333 26.648 29.229 C 26.543 29.15 26.491 29.047 26.491 28.917 C 26.491 28.878 26.589 28.741 26.784 28.507 C 27.006 28.245 27.24 27.926 27.487 27.549 C 27.774 27.107 28.047 26.65 28.308 26.182 C 28.594 25.648 28.822 25.036 28.991 24.346 C 29.187 23.643 29.284 22.926 29.284 22.198 C 29.284 21.99 29.375 21.885 29.558 21.885 C 29.597 21.885 29.681 21.904 29.812 21.943 C 29.851 21.956 29.932 21.977 30.056 22.003 C 30.179 22.029 30.28 22.055 30.358 22.081 C 30.593 22.12 30.814 22.139 31.023 22.139"/>
  <path class="Beam" fill-rule="evenodd" d="M 97.203 35.635 L 111.996 35.635 L 111.996 38.135 L 97.203 38.135 L 97.203 35.635"/>
</svg>
